src/images/crypto-icon-svg/mana.svg

<svg xmlns="http://www.w3.org/2000/svg" width="32" height="32"><g fill="none"><circle cx="16" cy="16" r="16" fill="#BFB5AF"/><path fill="#FFF" d="M16 5c6.061 0 11 4.939 11 11s-4.939 11-11 11S5 22.061 5 16 9.939 5 16 5zm8.855 9.889l1.265 1.43V16c0-5.577-4.543-10.12-10.12-10.12-5.533 0-10.054 4.466-10.12 9.988l.517-.011 1.683-2.948h2.31l.946 3.102 1.881-.484.979.539 1.221-1.54.869.506.88.319.539-.275.055-.055c-1.573-.451-2.739-1.903-2.739-3.619 0-2.068 1.694-3.74 3.762-3.74a3.756 3.756 0 0 1 3.322 5.5h.44l1.364 1.892.946-.165zM16 26.12a10.17 10.17 0 0 0 3.586-.649c-.704-.209-1.584-.385-2.442-.561-.473-.099-.968-.198-1.43-.297a22.913 22.913 0 0 0-1.188-.242c-1.287-.242-2.134-.407-2.266-1.056-.11-.539.319-1.056 1.562-1.914.594-.396.66-.627.649-.671 0-.022-.198-.55-3.124-.869l-.341-.033c-.022.462-.528.792-1.221.792-.715 0-1.232-.352-1.232-.836 0-.022 0-.044.022-.11a1.403 1.403 0 0 0-.209-.011 1.593 1.593 0 0 1-.407.044c-.17.002-.341-.02-.506-.066-.308 0-.616-.011-.902-.011 1.463 3.795 5.148 6.49 9.449 6.49zm4.708-1.166c2.794-1.474 4.807-4.202 5.291-7.414l-1.485-1.683-1.012.176-1.43-1.969h-.165l-.66.528-.825-1.111-1.375 1.463c.033-.022.077-.033.11-.044.495-.154.88-.385 1.012-.836.121.407.484.638.902.792.055.022.11.033.165.055h.011c.836.319 1.419.979 1.474 1.76.121.165.297.297.495.396.132.044.275.088.396.154.022 0 .033.011.044.011h-.011c.715.363 1.199 1.001 1.199 1.738 0 .275-.165.825-1.419 1.034a.827.827 0 0 0-.693.814v1.012c0 .253-.22.462-.484.44-.231-.022-.396-.231-.396-.462v-.99a.827.827 0 0 0-.693-.814 2.973 2.973 0 0 1-.539-.132v1.727c0 .33-.242 1.111-2.552 1.111-2.299 0-2.552-.781-2.552-1.111 0-.913.737-1.683 1.76-1.958.396-.154.704-.374.814-.759.143.473.594.704 1.078.858h-.011c.22.077.418.187.594.308v-1.43a.827.827 0 0 0-.693-.814c-1.254-.209-1.419-.77-1.419-1.034s.066-.517.176-.748l-.572.297-1.32-.484-.286-.165-2.442 3.091-.693-.55 1.144-1.441-.539-.297-2.354.605-1.001-3.289H8.597l-1.672 2.926-1.012.033c.055.673.172 1.34.352 1.991h.506c.044-.187.209-.682.781-2.354l.418-1.221.385 1.243c.341.99.539 1.562.649 1.914.099-.286.209-.616.352-1.023l.418-1.221.418 1.221c.253.748.429 1.265.55 1.628.242.022.473.044.693.066 2.442.264 3.641.726 3.872 1.485.253.814-.682 1.452-.99 1.661-.858.583-1.1.869-1.177.99.231.132.946.275 1.54.385.374.066.792.143 1.221.242.462.099.946.198 1.408.286 1.32.264 2.574.506 3.399.913zm-.968-3.421c-.044-.616-.792-1.122-1.672-1.122-.88 0-1.628.506-1.672 1.122.154.11.726.286 1.672.286s1.518-.176 1.672-.286zm2.563-3.751c-.88 0-1.628.506-1.672 1.122.154.11.737.286 1.672.286.935 0 1.518-.176 1.672-.286-.044-.616-.792-1.122-1.672-1.122zm-.451-1.078c-.044-.616-.792-1.122-1.672-1.122-.88 0-1.628.506-1.672 1.122.154.11.737.286 1.672.286.935 0 1.518-.176 1.672-.286zm-.671-3.729a2.84 2.84 0 0 0 .473-1.562 2.873 2.873 0 0 0-2.871-2.871 2.873 2.873 0 0 0-.308 5.731l2.046-2.189.66.891zM9.499 19.696c.194.059.4.059.594 0l-.297-.891-.297.891zm-1.815-.935c.187 0 .374.011.572.011-.055-.198-.165-.517-.286-.869-.121.341-.22.66-.286.858zm4.224-5.907a2.554 2.554 0 0 1-2.552-2.552 2.554 2.554 0 0 1 2.552-2.552 2.554 2.554 0 0 1 2.552 2.552 2.56 2.56 0 0 1-2.552 2.552zm0-4.224a1.672 1.672 0 1 0 1.672 1.672c0-.924-.759-1.672-1.672-1.672z"/></g></svg>

<svg xmlns="http://www.w3.org/2000/svg" width="32" height="32" viewBox="0 0 32 32">
  <g fill="none">
    <circle cx="16" cy="16" r="16" fill="#BFB5AF"/>
    <path fill="#FFF" d="M16,5 C22.061,5 27,9.939 27,16 C27,22.061 22.061,27 16,27 C9.939,27 5,22.061 5,16 C5,9.939 9.939,5 16,5 Z M24.855,14.889 L26.12,16.319 L26.12,16 C26.12,10.423 21.577,5.88 16,5.88 C10.467,5.88 5.946,10.346 5.88,15.868 L6.397,15.857 L8.08,12.909 L10.39,12.909 L11.336,16.011 L13.217,15.527 L14.196,16.066 L15.417,14.526 L16.286,15.032 L17.166,15.351 L17.705,15.076 L17.76,15.021 C16.187,14.57 15.021,13.118 15.021,11.402 C15.021,9.334 16.715,7.662 18.783,7.662 C20.851,7.662 22.534,9.345 22.534,11.413 C22.5342681,12.022081 22.3870756,12.6221731 22.105,13.162 L22.545,13.162 L23.909,15.054 L24.855,14.889 Z M16,26.12 C17.2246601,26.1213508 18.4394948,25.9014881 19.586,25.471 C18.882,25.262 18.002,25.086 17.144,24.91 C16.671,24.811 16.176,24.712 15.714,24.613 C15.296,24.514 14.889,24.437 14.526,24.371 C13.239,24.129 12.392,23.964 12.26,23.315 C12.15,22.776 12.579,22.259 13.822,21.401 C14.416,21.005 14.482,20.774 14.471,20.73 C14.471,20.708 14.273,20.18 11.347,19.861 C11.237,19.85 11.116,19.839 11.006,19.828 C10.984,20.29 10.478,20.62 9.785,20.62 C9.07,20.62 8.553,20.268 8.553,19.784 C8.553,19.762 8.553,19.74 8.575,19.674 C8.50570445,19.665134 8.43584339,19.6614571 8.366,19.663 C8.245,19.696 8.102,19.707 7.959,19.707 C7.78806948,19.7088943 7.61772577,19.6866755 7.453,19.641 C7.145,19.641 6.837,19.63 6.551,19.63 C8.014,23.425 11.699,26.12 16,26.12 Z M20.708,24.954 C23.502,23.48 25.515,20.752 25.999,17.54 L24.514,15.857 L23.502,16.033 L22.072,14.064 L21.907,14.064 L21.247,14.592 L20.422,13.481 L19.047,14.944 C19.08,14.922 19.124,14.911 19.157,14.9 C19.652,14.746 20.037,14.515 20.169,14.064 C20.29,14.471 20.653,14.702 21.071,14.856 C21.126,14.878 21.181,14.889 21.236,14.911 L21.247,14.911 C22.083,15.23 22.666,15.89 22.721,16.671 C22.842,16.836 23.018,16.968 23.216,17.067 C23.348,17.111 23.491,17.155 23.612,17.221 C23.634,17.221 23.645,17.232 23.656,17.232 L23.645,17.232 C24.36,17.595 24.844,18.233 24.844,18.97 C24.844,19.245 24.679,19.795 23.425,20.004 C23.0260993,20.0694903 22.7330046,20.4137603 22.732,20.818 L22.732,21.83 C22.732,22.083 22.512,22.292 22.248,22.27 C22.017,22.248 21.852,22.039 21.852,21.808 L21.852,20.818 C21.8509954,20.4137603 21.5579007,20.0694903 21.159,20.004 C20.95,19.971 20.774,19.927 20.62,19.872 L20.62,21.599 C20.62,21.929 20.378,22.71 18.068,22.71 C15.769,22.71 15.516,21.929 15.516,21.599 C15.516,20.686 16.253,19.916 17.276,19.641 C17.672,19.487 17.98,19.267 18.09,18.882 C18.233,19.355 18.684,19.586 19.168,19.74 L19.157,19.74 C19.377,19.817 19.575,19.927 19.751,20.048 L19.751,18.618 C19.7499954,18.2137603 19.4569007,17.8694903 19.058,17.804 C17.804,17.595 17.639,17.034 17.639,16.77 C17.639,16.506 17.705,16.253 17.815,16.022 L17.243,16.319 L15.923,15.835 L15.637,15.67 L13.195,18.761 L12.502,18.211 L13.646,16.77 L13.107,16.473 L10.753,17.078 L9.752,13.789 L8.597,13.789 L6.925,16.715 L5.913,16.748 C5.96763421,17.4212371 6.08548683,18.087841 6.265,18.739 L6.771,18.739 C6.815,18.552 6.98,18.057 7.552,16.385 L7.97,15.164 L8.355,16.407 C8.696,17.397 8.894,17.969 9.004,18.321 C9.103,18.035 9.213,17.705 9.356,17.298 L9.774,16.077 L10.192,17.298 C10.445,18.046 10.621,18.563 10.742,18.926 C10.984,18.948 11.215,18.97 11.435,18.992 C13.877,19.256 15.076,19.718 15.307,20.477 C15.56,21.291 14.625,21.929 14.317,22.138 C13.459,22.721 13.217,23.007 13.14,23.128 C13.371,23.26 14.086,23.403 14.68,23.513 C15.054,23.579 15.472,23.656 15.901,23.755 C16.363,23.854 16.847,23.953 17.309,24.041 C18.629,24.305 19.883,24.547 20.708,24.954 Z M19.74,21.533 C19.696,20.917 18.948,20.411 18.068,20.411 C17.188,20.411 16.44,20.917 16.396,21.533 C16.55,21.643 17.122,21.819 18.068,21.819 C19.014,21.819 19.586,21.643 19.74,21.533 Z M22.303,17.782 C21.423,17.782 20.675,18.288 20.631,18.904 C20.785,19.014 21.368,19.19 22.303,19.19 C23.238,19.19 23.821,19.014 23.975,18.904 C23.931,18.288 23.183,17.782 22.303,17.782 Z M21.852,16.704 C21.808,16.088 21.06,15.582 20.18,15.582 C19.3,15.582 18.552,16.088 18.508,16.704 C18.662,16.814 19.245,16.99 20.18,16.99 C21.115,16.99 21.698,16.814 21.852,16.704 Z M21.181,12.975 C21.4881042,12.5118295 21.6525633,11.9687318 21.654,11.413 C21.654,9.829 20.367,8.542 18.783,8.542 C17.199,8.542 15.912,9.829 15.912,11.413 C15.912,12.898 17.034,14.119 18.475,14.273 L20.521,12.084 L21.181,12.975 Z M9.499,19.696 C9.69265383,19.75467 9.89934617,19.75467 10.093,19.696 L9.796,18.805 L9.499,19.696 Z M7.684,18.761 C7.871,18.761 8.058,18.772 8.256,18.772 C8.201,18.574 8.091,18.255 7.97,17.903 C7.849,18.244 7.75,18.563 7.684,18.761 Z M11.908,12.854 C10.5,12.854 9.356,11.71 9.356,10.302 C9.356,8.894 10.5,7.75 11.908,7.75 C13.316,7.75 14.46,8.894 14.46,10.302 C14.46,11.71 13.305,12.854 11.908,12.854 Z M11.908,8.63 C10.9845799,8.63 10.236,9.3785799 10.236,10.302 C10.236,11.2254201 10.9845799,11.974 11.908,11.974 C12.8314201,11.974 13.58,11.2254201 13.58,10.302 C13.58,9.378 12.821,8.63 11.908,8.63 Z"/>
  </g>
</svg>
